assets/icons/utility/steps.svg

<?xml version="1.0"?><svg xmlns="http://www.w3.org/2000/svg" width="52" height="52" viewBox="0 0 52 52"><path fill="#fff" d="m44.4 50.2h-7v-4.8h7v4.8z m0-2.3z m-14.1 2.3h-7v-4.8h7v4.8z m-14 0h-7v-4.8h7v4.8z m-9.4-5.9h-4.8v-7h4.8v7z m43-1.7h-4.8v-7h4.8v7z m-43-12.3h-4.8v-7h4.8v7z m43-1.7h-4.8v-7h4.8v7z m-43-12.3h-4.8v-7h4.8v7z m43-1.6h-4.8v-7h4.8v7z m-7.3-8.1h-7v-4.8h7v4.8z m-14 0h-7v-4.8h7v4.8z m-13.9 0h-7v-4.8h7v4.8z"></path></svg>

<svg xmlns="http://www.w3.org/2000/svg" x="0px" y="0px"
	 width="52px" height="52px" viewBox="0 0 52 52" enable-background="new 0 0 52 52" xml:space="preserve">
<path fill="#FFFFFF" d="M44.4,50.2h-7v-4.8h7v2.5V50.2L44.4,50.2z M44.4,47.9L44.4,47.9L44.4,47.9L44.4,47.9z M30.3,50.2h-7v-4.8h7
	V50.2z M16.3,50.2h-7v-4.8h7V50.2z M6.9,44.3H2.1v-7h4.8V44.3z M49.9,42.6h-4.8v-7h4.8V42.6z M6.9,30.3H2.1v-7h4.8V30.3z M49.9,28.6
	h-4.8v-7h4.8V28.6z M6.9,16.3H2.1v-7h4.8V16.3z M49.9,14.7h-4.8v-7h4.8V14.7z M42.6,6.6h-7V1.8h7V6.6z M28.6,6.6h-7V1.8h7V6.6z
	 M14.7,6.6H7.7V1.8h7L14.7,6.6L14.7,6.6z"/>
</svg>
